X:102
T:Little Rock Getaway
C:Carl Sigman
N:Tabeldited by Mike stangeland
L:1/8
Q:1/4=200
M:4/4
K:C
z2 GA Bc d^d | "C"eG ce "E7"d^G Bd | "Am"cE Ac "C7"_BD EB | "F"AC FA "A7"G^C EG | 
"Dm"FA, DF "Ebo"^FA, DF | "C"GD EG "Am"^FD ^DF | "F"FD B,A, "G"G,A, B,D | "C"CE GB "A7"AG E^C | 
"Dm"DF Ac "G"Bc d^d | "C"eG ce "E7"d^G Bd | "Am"cE Ac "C7"_BD EB | "F"AC FA "A7"G^C EG | 
"Dm"FA, DF "Ebo"^FA, DF | "C"GD EG "Am"^FD ^DF | "F"FD B,A, "G"G,A, B,D | "C"CB, CD "G"ED EF | 
"C"G^F GA "C7"_BA B=B | "F"c2 AF DE FA | "Ebo"c2 A^F ^DF AB | "C"c2 A^D EG AB | 
"C7"cG A_B zA B=B | "F"c2 AF DE FA | "Ebo"c2 A^F ^DF AB | "C"cB cd cG A_B | "G"B_B A^G =G=B cd | 
"C"eG ce "E7"d^G Bd | "Am"cE Ac "C7"_BD EB | "F"AC FA "A7"G^C EG | "Dm"FA, DF "Ebo"^FA, DF | 
"C"GD EG "Am"^FD ^DF | "F"FD B,A, "G"G,A, B,D | "C"CE GB "G"AG E^C | "C"DF Ac Bc d^d | 
"C"eG ce "E7"d^G Bd | "Am"cE Ac "C7"_BD EB | "F"AC FA "A7"G^C EG | "C"FA, DF "Am"^FC ^DF | 
"F"GE CG "G"^F^D B,D | "C"F^G, A,C "A7"E^D =DB, | "C"G,A, CE "A7"G,_B, CE | "Dm"DF Ac "G"^D^F Ac | 
"C"eG ce "E7"d^G Bd | "Am"cE Ac "C7"_BD EB | "F"AC FA "A7"G^C EG | "Dm"FA, DF ^FC ^DF | 
"C"GE CG "Am"^F^D B,D | "F"F^G, A,C "G"E^D =DB, | "C"CG, A,C "G"^DE GA | "C"c6 (3ega | 
"F"c'2 af df ab | "Ebo"c'a ^f^d cd fa | "C"ge cA Gc ef | ge ae "C7"_bd' c'b | 
"F"c'2 af df ab | "Ebo"c'a ^f^d cd fa | "C"ge cA Gc eg | "G"f^d BG FG Bd | "C"eG ce "E7"d^G Bd | 
"Am"cE Ac "C7"_BG EC | "F"AC FG "A7"A^C EG | "Dm"FA, DF "Ebo"^FC ^DF | "C"GE CG "Am"^F^D B,D | 
"F"F^G, A,C "G"E^D =DB, | "C"G,A, CE "Go"G,_B, CE | "Dm"DF Ac "G"^D^F Ac | "C"GE CD "Am"^F^D B,=D | 
"F"F^G, A,C "G"E^D =DB, | "C"CG, A,C ^DE GA | c8 | 


